openmetadata-ui/src/main/resources/ui/src/assets/svg/ic-lineage.svg

<svg width="16" height="16" viewBox="0 0 16 16" fill="none" xmlns="http://www.w3.org/2000/svg">
<path d="M14.4 0.800051C13.5181 0.798458 12.8019 1.51208 12.8003 2.39399C12.7996 2.80965 12.9609 3.20924 13.2501 3.5078L10.3269 9.35315C10.2629 9.34252 10.1982 9.33593 10.1333 9.33343C9.92678 9.33383 9.72228 9.37443 9.53122 9.4529L7.26188 6.9009C7.39434 6.66668 7.46484 6.40252 7.46669 6.13343C7.46669 5.24977 6.75034 4.53343 5.86669 4.53343C4.98303 4.53343 4.26669 5.24977 4.26669 6.13343C4.26825 6.51536 4.40766 6.88389 4.65922 7.1713L1.88587 12.0289C1.79163 12.0107 1.69597 12.0011 1.6 12.0001C0.716344 12.0001 0 12.7164 0 13.6001C0 14.4837 0.716344 15.2001 1.6 15.2001C2.48366 15.2001 3.2 14.4837 3.2 13.6001C3.19844 13.2181 3.05903 12.8496 2.80747 12.5622L5.58081 7.70458C5.87853 7.7634 6.18703 7.73183 6.46669 7.61393L8.73603 10.1659C8.60431 10.4003 8.53453 10.6645 8.53337 10.9334C8.53072 11.8171 9.24487 12.5356 10.1285 12.5382C11.0122 12.5409 11.7307 11.8267 11.7333 10.9431C11.7346 10.5262 11.5731 10.1253 11.2832 9.82568L14.2064 3.98033C14.2705 3.99096 14.3351 3.99755 14.4 4.00005C15.2837 4.00005 16 3.28371 16 2.40005C16 1.5164 15.2837 0.800051 14.4 0.800051ZM1.6 14.1334C1.30544 14.1334 1.06666 13.8946 1.06666 13.6001C1.06666 13.3055 1.30544 13.0667 1.6 13.0667C1.89456 13.0667 2.13334 13.3055 2.13334 13.6001C2.13334 13.8946 1.89456 14.1334 1.6 14.1334ZM5.86666 6.66671C5.57209 6.66671 5.33331 6.42793 5.33331 6.13336C5.33331 5.8388 5.57209 5.60002 5.86666 5.60002C6.16122 5.60002 6.4 5.8388 6.4 6.13336C6.4 6.42793 6.16122 6.66671 5.86666 6.66671ZM10.1333 11.4667C9.83878 11.4667 9.6 11.2279 9.6 10.9334C9.6 10.6388 9.83878 10.4 10.1333 10.4C10.4279 10.4 10.6667 10.6388 10.6667 10.9334C10.6667 11.2279 10.4279 11.4667 10.1333 11.4667ZM14.4 2.9334C14.1054 2.9334 13.8667 2.69461 13.8667 2.40005C13.8667 2.10549 14.1054 1.86671 14.4 1.86671C14.6946 1.86671 14.9333 2.10549 14.9333 2.40005C14.9333 2.69461 14.6946 2.9334 14.4 2.9334Z" fill="#76746F"/>
</svg>

<svg xmlns="http://www.w3.org/2000/svg" width="16" height="16" fill="none"><path fill="#76746F" d="M14.4.8a1.597 1.597 0 0 0-1.15 2.708l-2.923 5.845a1.545 1.545 0 0 0-.194-.02c-.206 0-.41.041-.602.12L7.261 6.9c.133-.234.204-.498.206-.768a1.6 1.6 0 0 0-3.2 0c.001.382.14.75.392 1.038L1.886 12.03A1.595 1.595 0 0 0 1.6 12a1.6 1.6 0 1 0 1.6 1.6 1.586 1.586 0 0 0-.393-1.038l2.774-4.857c.298.058.606.027.886-.091l2.269 2.552a1.58 1.58 0 0 0-.203.767 1.6 1.6 0 1 0 2.75-1.107l2.923-5.846c.065.011.13.018.194.02a1.6 1.6 0 1 0 0-3.2ZM1.6 14.133a.533.533 0 1 1 0-1.066.533.533 0 0 1 0 1.066Zm4.267-7.466a.533.533 0 1 1 0-1.067.533.533 0 0 1 0 1.067Zm4.266 4.8a.533.533 0 1 1 0-1.067.533.533 0 0 1 0 1.067ZM14.4 2.933a.533.533 0 1 1 0-1.066.533.533 0 0 1 0 1.066Z"/></svg>
